( Made using CamBam - http://www.cambam.co.uk )
( platte_qcad2 5/19/2016 11:53:12 PM )
( T3 : 6.0 )
G21 G90 G64 G40
G0 Z3.0
( T3 : 6.0 )
T3 M6
( Tasche1 )
G17
M3 S18000
G0 X235.9631 Y248.5369
G0 Z1.0
G1 F800.0 Z0.0
G2 X238.5 Y226.042 Z-4.0 I-98.4631 J-22.4949
G2 F1000.0 X87.0 Y138.5734 I-101.0 J0.0
G2 Y313.5106 I50.5 J87.4686
G2 X238.5 Y226.042 I50.5 J-87.4686
G1 F800.0 X235.8952
G3 F1000.0 X88.3024 Y311.2547 I-98.3952 J0.0
G3 Y140.8293 I49.1976 J-85.2127
G3 X235.8952 Y226.042 I49.1976 J85.2127
G1 F800.0 X233.5
G3 F1000.0 X89.5 Y309.1804 I-96.0 J0.0
G3 Y142.9036 I48.0 J-83.1384
G3 X233.5 Y226.042 I48.0 J83.1384
G1 F800.0 X236.1
G3 F1000.0 X88.2 Y311.4321 I-98.6 J0.0
G3 Y140.6519 I49.3 J-85.3901
G3 X236.1 Y226.042 I49.3 J85.3901
G0 Z3.0
G0 X235.9631 Y248.5369
G0 Z-3.0
G1 F800.0 Z-4.0
G2 X238.5 Y226.042 Z-8.0 I-98.4631 J-22.4949
G2 F1000.0 X87.0 Y138.5734 I-101.0 J0.0
G2 Y313.5106 I50.5 J87.4686
G2 X238.5 Y226.042 I50.5 J-87.4686
G1 F800.0 X235.8952
G3 F1000.0 X88.3024 Y311.2547 I-98.3952 J0.0
G3 Y140.8293 I49.1976 J-85.2127
G3 X235.8952 Y226.042 I49.1976 J85.2127
G1 F800.0 X233.5
G3 F1000.0 X89.5 Y309.1804 I-96.0 J0.0
G3 Y142.9036 I48.0 J-83.1384
G3 X233.5 Y226.042 I48.0 J83.1384
G1 F800.0 X236.1
G3 F1000.0 X88.2 Y311.4321 I-98.6 J0.0
G3 Y140.6519 I49.3 J-85.3901
G3 X236.1 Y226.042 I49.3 J85.3901
( Profil2 )
S18000
G0 Z3.0
G0 X224.6561 Y248.4877
G0 Z1.0
G1 F800.0 Z0.0
G2 X227.5 Y226.042 Z-4.0 I-87.1561 J-22.4457
G2 F1000.0 X92.5 Y148.0997 I-90.0 J0.0
G2 Y303.9843 I45.0 J77.9423
G2 X227.5 Y226.042 I45.0 J-77.9423
G0 Z3.0
G0 X224.6561 Y248.4877
G0 Z-3.0
G1 F800.0 Z-4.0
G2 X227.5 Y226.042 Z-8.0 I-87.1561 J-22.4457
G2 F1000.0 X92.5 Y148.0997 I-90.0 J0.0
G2 Y303.9843 I45.0 J77.9423
G2 X227.5 Y226.042 I45.0 J-77.9423
G0 Z3.0
G0 X224.6561 Y248.4877
G0 Z-7.0
G1 F800.0 Z-8.0
G2 X227.5 Y226.042 Z-12.0 I-87.1561 J-22.4457
G2 F1000.0 X92.5 Y148.0997 I-90.0 J0.0
G2 Y303.9843 I45.0 J77.9423
G2 X227.5 Y226.042 I45.0 J-77.9423
G0 Z3.0
G0 X224.6561 Y248.4877
G0 Z-11.0
G1 F800.0 Z-12.0
G2 X227.5 Y226.042 Z-16.0 I-87.1561 J-22.4457
G2 F1000.0 X92.5 Y148.0997 I-90.0 J0.0
G2 Y303.9843 I45.0 J77.9423
G2 X227.5 Y226.042 I45.0 J-77.9423
G0 Z3.0
G0 X131.4872 Y92.956
G0 Z1.0
G1 F800.0 Z0.0
G2 X153.4638 Y89.4518 Z-4.0 I6.0128 J-32.956
G2 F1000.0 X171.0 Y60.0 I-15.9638 J-29.4518
G2 X120.75 Y30.9881 I-33.5 J0.0
G2 Y89.0119 I16.75 J29.0119
G2 X153.4638 Y89.4518 I16.75 J-29.0119
G0 Z3.0
G0 X131.4872 Y92.956
G0 Z-3.0
G1 F800.0 Z-4.0
G2 X153.4638 Y89.4518 Z-8.0 I6.0128 J-32.956
G2 F1000.0 X171.0 Y60.0 I-15.9638 J-29.4518
G2 X120.75 Y30.9881 I-33.5 J0.0
G2 Y89.0119 I16.75 J29.0119
G2 X153.4638 Y89.4518 I16.75 J-29.0119
G0 Z3.0
G0 X131.4872 Y92.956
G0 Z-7.0
G1 F800.0 Z-8.0
G2 X153.4638 Y89.4518 Z-12.0 I6.0128 J-32.956
G2 F1000.0 X171.0 Y60.0 I-15.9638 J-29.4518
G2 X120.75 Y30.9881 I-33.5 J0.0
G2 Y89.0119 I16.75 J29.0119
G2 X153.4638 Y89.4518 I16.75 J-29.0119
G0 Z3.0
G0 X131.4872 Y92.956
G0 Z-11.0
G1 F800.0 Z-12.0
G2 X153.4638 Y89.4518 Z-16.0 I6.0128 J-32.956
G2 F1000.0 X171.0 Y60.0 I-15.9638 J-29.4518
G2 X120.75 Y30.9881 I-33.5 J0.0
G2 Y89.0119 I16.75 J29.0119
G2 X153.4638 Y89.4518 I16.75 J-29.0119
( Profil3 )
S18000
G0 Z3.0
G0 X-3.0 Y100.9727
G0 Z1.0
G1 F800.0 Z0.0
G1 Y83.0 Z-3.1691
G3 X0.0 Y80.0 Z-4.0 I3.0 J0.0
G1 F1000.0 X5.6274
G2 X9.6364 Y70.2943 I0.0 J-5.6808
G1 X-2.1171 Y58.5871
G3 X-3.0 Y56.4616 I2.1171 J-2.1255
G1 Y30.0
G3 X30.0 Y-3.0 I33.0 J0.0
G1 X245.0
G3 X278.0 Y30.0 I0.0 J33.0
G1 Y56.4616
G3 X277.1171 Y58.5871 I-3.0 J0.0
G1 X265.3636 Y70.2943
G2 X269.3726 Y80.0 I4.009 J4.0249
G1 X275.0
G3 X278.0 Y83.0 I0.0 J3.0
G1 Y282.0
G3 X275.0 Y285.0 I-3.0 J0.0
G1 X269.3726
G2 X265.3636 Y294.7057 I0.0 J5.6808
G1 X277.1171 Y306.4129
G3 X278.0 Y308.5384 I-2.1171 J2.1255
G1 Y335.0
G3 X245.0 Y368.0 I-33.0 J0.0
G1 X30.0
G3 X-3.0 Y335.0 I0.0 J-33.0
G1 Y308.5384
G3 X-2.1171 Y306.4129 I3.0 J0.0
G1 X9.6364 Y294.7057
G2 X5.6274 Y285.0 I-4.009 J-4.0249
G1 X0.0
G3 X-3.0 Y282.0 I0.0 J-3.0
G1 Y83.0
G3 X0.0 Y80.0 I3.0 J0.0
G0 Z3.0
G0 X-3.0 Y100.9727
G0 Z-3.0
G1 F800.0 Z-4.0
G1 Y83.0 Z-7.1691
G3 X0.0 Y80.0 Z-8.0 I3.0 J0.0
G1 F1000.0 X5.6274
G2 X9.6364 Y70.2943 I0.0 J-5.6808
G1 X-2.1171 Y58.5871
G3 X-3.0 Y56.4616 I2.1171 J-2.1255
G1 Y30.0
G3 X30.0 Y-3.0 I33.0 J0.0
G1 X245.0
G3 X278.0 Y30.0 I0.0 J33.0
G1 Y56.4616
G3 X277.1171 Y58.5871 I-3.0 J0.0
G1 X265.3636 Y70.2943
G2 X269.3726 Y80.0 I4.009 J4.0249
G1 X275.0
G3 X278.0 Y83.0 I0.0 J3.0
G1 Y282.0
G3 X275.0 Y285.0 I-3.0 J0.0
G1 X269.3726
G2 X265.3636 Y294.7057 I0.0 J5.6808
G1 X277.1171 Y306.4129
G3 X278.0 Y308.5384 I-2.1171 J2.1255
G1 Y335.0
G3 X245.0 Y368.0 I-33.0 J0.0
G1 X30.0
G3 X-3.0 Y335.0 I0.0 J-33.0
G1 Y308.5384
G3 X-2.1171 Y306.4129 I3.0 J0.0
G1 X9.6364 Y294.7057
G2 X5.6274 Y285.0 I-4.009 J-4.0249
G1 X0.0
G3 X-3.0 Y282.0 I0.0 J-3.0
G1 Y83.0
G3 X0.0 Y80.0 I3.0 J0.0
G0 Z3.0
G0 X-3.0 Y100.9727
G0 Z-7.0
G1 F800.0 Z-8.0
G1 Y83.0 Z-11.1691
G3 X0.0 Y80.0 Z-12.0 I3.0 J0.0
G1 F1000.0 X5.6274
G2 X9.6364 Y70.2943 I0.0 J-5.6808
G1 X-2.1171 Y58.5871
G3 X-3.0 Y56.4616 I2.1171 J-2.1255
G1 Y30.0
G3 X30.0 Y-3.0 I33.0 J0.0
G1 X245.0
G3 X278.0 Y30.0 I0.0 J33.0
G1 Y56.4616
G3 X277.1171 Y58.5871 I-3.0 J0.0
G1 X265.3636 Y70.2943
G2 X269.3726 Y80.0 I4.009 J4.0249
G1 X275.0
G3 X278.0 Y83.0 I0.0 J3.0
G1 Y282.0
G3 X275.0 Y285.0 I-3.0 J0.0
G1 X269.3726
G2 X265.3636 Y294.7057 I0.0 J5.6808
G1 X277.1171 Y306.4129
G3 X278.0 Y308.5384 I-2.1171 J2.1255
G1 Y335.0
G3 X245.0 Y368.0 I-33.0 J0.0
G1 X30.0
G3 X-3.0 Y335.0 I0.0 J-33.0
G1 Y308.5384
G3 X-2.1171 Y306.4129 I3.0 J0.0
G1 X9.6364 Y294.7057
G2 X5.6274 Y285.0 I-4.009 J-4.0249
G1 X0.0
G3 X-3.0 Y282.0 I0.0 J-3.0
G1 Y83.0
G3 X0.0 Y80.0 I3.0 J0.0
G0 Z3.0
G0 X-3.0 Y100.9727
G0 Z-11.0
G1 F800.0 Z-12.0
G1 Y83.0 Z-15.1691
G3 X0.0 Y80.0 Z-16.0 I3.0 J0.0
G1 F1000.0 X5.6274
G2 X9.6364 Y70.2943 I0.0 J-5.6808
G1 X-2.1171 Y58.5871
G3 X-3.0 Y56.4616 I2.1171 J-2.1255
G1 Y30.0
G3 X30.0 Y-3.0 I33.0 J0.0
G1 X245.0
G3 X278.0 Y30.0 I0.0 J33.0
G1 Y56.4616
G3 X277.1171 Y58.5871 I-3.0 J0.0
G1 X265.3636 Y70.2943
G2 X269.3726 Y80.0 I4.009 J4.0249
G1 X275.0
G3 X278.0 Y83.0 I0.0 J3.0
G1 Y282.0
G3 X275.0 Y285.0 I-3.0 J0.0
G1 X269.3726
G2 X265.3636 Y294.7057 I0.0 J5.6808
G1 X277.1171 Y306.4129
G3 X278.0 Y308.5384 I-2.1171 J2.1255
G1 Y335.0
G3 X245.0 Y368.0 I-33.0 J0.0
G1 X30.0
G3 X-3.0 Y335.0 I0.0 J-33.0
G1 Y308.5384
G3 X-2.1171 Y306.4129 I3.0 J0.0
G1 X9.6364 Y294.7057
G2 X5.6274 Y285.0 I-4.009 J-4.0249
G1 X0.0
G3 X-3.0 Y282.0 I0.0 J-3.0
G1 Y83.0
G3 X0.0 Y80.0 I3.0 J0.0
G0 Z3.0
M5
M30
